PortableApps/LibreOfficePortable/App/libreoffice/help/media/icon-themes/starmath/res/co21917.svg

<svg viewBox="0 0 24 24" xmlns="http://www.w3.org/2000/svg"><g fill="#696969"><path d="m10.000005 22.912256v-7.912256h1.025641v2.6539c.2331-.296658.499222-.530641.798367-.70195.299146-.175488.642969-.263232 1.031469-.263232.330225 0 .627428.06894.891609.206826.26418.137883.48951.33635.67599.595403.186481.259053.328283.574512.425408.946379.10101.367688.151515.785515.151515 1.253482 0 .497214-.05633.948467-.168997 1.35376-.112665.405293-.273893.754179-.483683 1.046658-.209791.2883-.464259.511837-.763404.670612s-.635197.238162-1.008158.238162-.685703-.07521-.938228-.225627c-.24864-.154596-.470085-.367688-.664336-.639276l-.05828.545265c-.01554.154596-.09907.231894-.250582.231894zm2.511654-5.352367c-.314685 0-.592463.07939-.833333.238161-.236985.158775-.454545.384402-.65268.676881v2.958216c.17871.263231.374903.449165.588578.5578.213675.104457.448717.156685.705128.156685.524475 0 .926573-.202646 1.206294-.607938.27972-.405293.41958-1.009054.41958-1.811282 0-.743732-.12432-1.291086-.372961-1.642061-.24864-.350975-.602175-.526462-1.060606-.526462z"/><path d="m9.129192 12.20747q0 .622405.972942.697093l-.1314781.921164h-3.707699l-.2629569-.47303q.7099851-1.294607 3.3132625-3.784232l1.6303355-1.568464-1.5251529-3.311204q-.341844-.771785-.7099851-.946058-.341844-.199171-1.0781246-.199171l-.1314788-.821576 2.7610524-.721992.657393.547718 1.840701 4.058092q2.15625-2.091288 2.15625-2.763486 0-.672199-.841463-.821577v-.821577h3.497332l.420732.448133q.10518.09958-.999237 1.319503-1.078127 1.219916-2.314025 2.39004l-1.41997 1.344399 1.840702 3.983403q.262956.522822.394436.572613.131478.0249.447028.0249.315548 0 1.157012-.473029l.262956.79668q-1.709222 1.394188-2.734756 1.394188-.709984 0-1.104421-.622407-.157773-.224066-.368139-.672198l-1.682927-3.609957q-2.340321 2.215767-2.340321 3.112032z"/></g></svg>

<?xml version="1.0" encoding="UTF-8" standalone="no"?>
<svg
   xmlns:dc="http://purl.org/dc/elements/1.1/"
   xmlns:cc="http://creativecommons.org/ns#"
   xmlns:rdf="http://www.w3.org/1999/02/22-rdf-syntax-ns#"
   xmlns:svg="http://www.w3.org/2000/svg"
   xmlns="http://www.w3.org/2000/svg"
   xmlns:sodipodi="http://sodipodi.sourceforge.net/DTD/sodipodi-0.dtd"
   xmlns:inkscape="http://www.inkscape.org/namespaces/inkscape"
   viewBox="0 0 24 24"
   id="svg2"
   version="1.1"
   inkscape:version="0.91 r13725"
   sodipodi:docname="co21917.svg">
  <metadata
     id="metadata18">
    <rdf:RDF>
      <cc:Work
         rdf:about="">
        <dc:format>image/svg+xml</dc:format>
        <dc:type
           rdf:resource="http://purl.org/dc/dcmitype/StillImage" />
        <dc:title></dc:title>
      </cc:Work>
    </rdf:RDF>
  </metadata>
  <defs
     id="defs16" />
  <sodipodi:namedview
     pagecolor="#ffffff"
     bordercolor="#666666"
     borderopacity="1"
     objecttolerance="10"
     gridtolerance="10"
     guidetolerance="10"
     inkscape:pageopacity="0"
     inkscape:pageshadow="2"
     inkscape:window-width="1360"
     inkscape:window-height="709"
     id="namedview14"
     showgrid="true"
     inkscape:zoom="19.666667"
     inkscape:cx="7.3013498"
     inkscape:cy="11.884445"
     inkscape:window-x="0"
     inkscape:window-y="30"
     inkscape:window-maximized="1"
     inkscape:current-layer="svg2">
    <inkscape:grid
       type="xygrid"
       id="grid4175" />
  </sodipodi:namedview>
  <path
     style="fill:#696969"
     inkscape:connector-curvature="0"
     id="path10"
     d="m 10.000005,22.912256 0,-7.912256 1.025641,0 0,2.6539 c 0.2331,-0.296658 0.499222,-0.530641 0.798367,-0.70195 0.299146,-0.175488 0.642969,-0.263232 1.031469,-0.263232 0.330225,0 0.627428,0.06894 0.891609,0.206826 0.26418,0.137883 0.48951,0.33635 0.67599,0.595403 0.186481,0.259053 0.328283,0.574512 0.425408,0.946379 0.10101,0.367688 0.151515,0.785515 0.151515,1.253482 0,0.497214 -0.05633,0.948467 -0.168997,1.35376 -0.112665,0.405293 -0.273893,0.754179 -0.483683,1.046658 -0.209791,0.2883 -0.464259,0.511837 -0.763404,0.670612 C 13.284775,22.920613 12.948723,23 12.575762,23 c -0.372961,0 -0.685703,-0.07521 -0.938228,-0.225627 -0.24864,-0.154596 -0.470085,-0.367688 -0.664336,-0.639276 l -0.05828,0.545265 c -0.01554,0.154596 -0.09907,0.231894 -0.250582,0.231894 z m 2.511654,-5.352367 c -0.314685,0 -0.592463,0.07939 -0.833333,0.238161 -0.236985,0.158775 -0.454545,0.384402 -0.65268,0.676881 l 0,2.958216 c 0.17871,0.263231 0.374903,0.449165 0.588578,0.5578 0.213675,0.104457 0.448717,0.156685 0.705128,0.156685 0.524475,0 0.926573,-0.202646 1.206294,-0.607938 0.27972,-0.405293 0.41958,-1.009054 0.41958,-1.811282 0,-0.743732 -0.12432,-1.291086 -0.372961,-1.642061 -0.24864,-0.350975 -0.602175,-0.526462 -1.060606,-0.526462 z"
     sodipodi:nodetypes="cccccssscsscsscccscsccccsssss" />
  <path
     style="fill:#696969"
     inkscape:connector-curvature="0"
     id="path6-3"
     d="m 9.129192,12.20747 q 0,0.622405 0.972942,0.697093 l -0.1314781,0.921164 -3.707699,0 L 6,13.352697 Q 6.7099851,12.05809 9.3132625,9.568465 L 10.943598,8.000001 9.4184451,4.688797 Q 9.0766011,3.917012 8.70846,3.742739 8.366616,3.543568 7.6303354,3.543568 L 7.4988566,2.721992 10.259909,2 10.917302,2.547718 12.758003,6.60581 q 2.15625,-2.091288 2.15625,-2.763486 0,-0.672199 -0.841463,-0.821577 l 0,-0.821577 3.497332,0 0.420732,0.448133 q 0.10518,0.09958 -0.999237,1.319503 -1.078127,1.219916 -2.314025,2.39004 l -1.41997,1.344399 1.840702,3.983403 q 0.262956,0.522822 0.394436,0.572613 0.131478,0.0249 0.447028,0.0249 0.315548,0 1.157012,-0.473029 l 0.262956,0.79668 Q 15.650534,14 14.625,14 13.915016,14 13.520579,13.377593 13.362806,13.153527 13.15244,12.705395 L 11.469513,9.095438 Q 9.129192,11.311205 9.129192,12.20747 Z" />
</svg>
